X:1
T:Title
%%score { 1 | ( 2 3 ) }
L:1/8
Q:1/4=104
M:3/4
K:D
V:1 treble nm="Grand Piano"
V:2 treble 
V:3 treble 
V:1
 [Fd]4 (3ABc | [Fd]2 [FA]2 [DF]2 | [CE]2 [DF]2 [EG]2 | .[DF]2 .[A,D]2 z2 | [CE]4 [CE]>[CE] | %5
w: J.~J.~Hood * * *|||||
 [CA]2 [CE]2 [EA]2 | A2 c2 B2 | [CA]4 z2 | c4 B>c | [Fd]2 [FA]2 [FA]2 | c4 B>c | .[Fd]2 .[FA]2 z2 | %12
w: |||||||
 [Fd]4 [Ac]>[GB] | [GB]2 [FA]2 [A,DF]2 | .[B,DA]2 [A,DF]2[K:bass] [G,CE]2 | [F,D]4 z2 |] %16
w: ||||
V:2
 [D,A,]4 (3[A,-CG-][A,DG][A,EG] | [D,D]2 [D,D]2 [D,A,]2 | [A,,A,]2 [A,,A,]2 [A,,A,]2 | %3
 .[D,A,]2 .[D,F,]2 z2 | [A,,A,]4 [A,,A,]>[A,,A,] | [A,,E,]2 [A,,A,]2 [C,A,]2 | %6
 [E,CE]2 [E,A,E]2 [E,^G,D]2 | [A,,A,]4 z2 | [A,EG]4 [A,EG]>[A,EG] | [D,D]2 [D,D]2 [D,D]2 | %10
 [A,EG]4 [A,EG]>[A,EG] | .[D,D]2 .[D,D]2 z2 | [D,A,]4 [D,D]>[D,D] | [D,D]2 [D,D]2 D,2 | %14
 z G A,,2 A,,2 | D,4 z2 |] %16
V:3
 x6 | x6 | x6 | x6 | x6 | x6 | x6 | x6 | x6 | x6 | x6 | x6 | x6 | x6 | G,,2 z2 z2 | x6 |] %16

